X:7
T:Devil among the Taylors. Pn1801.07
Q:1/4=140
M:C
L:1/8
C:"447""p184"
N:Numbering sequence changes
W:1st Gent: take hands with 2nd Lady and lead down 2 Cu: & up again .| 1st Lady the same with 2 Gent :|
W:1st Cu: lead down 2 Cu: up again :|. right and left at top :||:
B:Preston 24 for 1801
Z:Village Music Project, John Adams, 2017
K:A
eaga eaga|eaga fedc|dfBf dfBf|dfBf fedc|
eaga eaga|eaga fedc|agfe dcBA| E2G2A4:|
|:ceAe ceAe|ceAe fedc|dfBf dfBf| dfBf gfed|
ceAe ceAe|ceAe fedc|agfe dcBA| E2G2A4:|
